X:1
T:The Young Laird and Edinburgh Katy
Z:Jack Campin: "Embro, Embro", transcription (c) 2001
F:09love/abc/YngLaird.abc
S:Scots Musical Museum
M:4/4
L:1/8
Q:1/4=100
K:Gdor
F|GG TGF  GA d2   |cA  fA  G>F D>G  |F>G AG F>G A>c|C<C DF  AG G||
f|g>a g>f ga gf/d/|f>g a>g f<d cf/g/|a>g fd c>d f>g|f>d f>A AG G|]

